X: 1
T:The Lone Bush
R:Hornpipe
C:Ed Reavy
N:As played
S:Dermy Diamond, Belfast (fiddle)
D:Session tape, Kitchen Bar, Belfast late 80's
M:4/4
Z:Bernie Stocks
K:G
(3DEF | GABd (3cBc dB | GABd c2 (3ABc| defa gfdc | (3Bcd BG =FDCD |
GABd (3cBc dB | GABd c2 (3ABc | dgfd cAFA |1 (3GFG  (3AGF G2 (3DEF
:|2 (3GFG  (3AGF G2 (3def || gdBd =fcAc | gd (3Bcd f2ef | gbfa gfde |
(3fga eg fdcA | GABd (3cBc dB | GABd c2 (3ABc | dgfd cAFA
|1 (3GFG  (3AGF G2 (3def :|2 (3GFG  (3AGF G2 (3DEF ||
